X:1
T:Title
%%score { ( 1 4 ) | ( 2 3 ) }
L:1/8
Q:1/4=118
M:3/4
K:D
V:1 treble nm="Grand Piano"
V:4 treble 
V:2 bass 
V:3 bass 
V:1
 z2 F2 G2 | A2 ^G2 A2 | c2 B2 A2 | .[A,EA]2 [A,DF]4 | z2 [A,DF]2 [A,EA]2 | %5
 [B,DG]2 [G,DG]2 [A,DF]2 | [^G,DE]2 [G,DF]2 [G,D]2 | [DF]2 E4 | z2 F2 G2 | A2 ^G2 A2 | %10
 [Gc]2 [B,GB]2 [CGA]2 | [Fd]6 | [GB]2 [DGc]2 [DGB]2 | [DA]2 [A,DF]2 [F,D]2 | %14
 [G,B,G]2 [A,CF]2[K:bass] [G,CE]2 | [F,D]6 |] %16
V:2
 z2 [D,A,D]2 [E,A,C]2 | [F,A,D]2 [=F,B,D]2 [^F,A,D]2 | [G,D]2 [G,D]2 [F,A,D]2 | z G D,4 | %4
 z2 D,2 C,2 | B,,2 B,,2 D,2 | E,2 E,2 B,,2 | z2 C4 | z2 [D,A,D]2 [E,A,C]2 | %9
 [F,A,D]2 [=F,B,D]2 [^F,A,D]2 | [E,A,]2 E,2 E,2 | B,6 | G,2 G,,2 G,,2 | [A,,F,]2 A,,2 B,,2 | %14
 E,2 A,,2 A,,2 | D,6 |] %16
V:3
 x6 | x6 | x6 | C,2 z2 z2 | x6 | x6 | x6 | A,,6 | x6 | x6 | x6 | x6 | x6 | x6 | x6 | x6 |] %16
V:4
 x6 | x6 | x6 | x6 | x6 | x6 | x6 | A,6 | x6 | x6 | x6 | D6- | D2 z2 z2 | x6 | x4[K:bass] x2 | %15
 x6 |] %16

